packages/astro-components-stencil/src/icons/tram.svg

<svg xmlns="http://www.w3.org/2000/svg" viewBox="0 0 24 24"><g xmlns="http://www.w3.org/2000/svg" id="tram" fill-rule="nonzero">
            <path d="M13 5l.75-1.5H17V2H7v1.5h4.75L11 5c-3.13.09-6 .73-6 3.5V17c0 1.5 1.11 2.73 2.55 2.95l-1.19 1.19c-.32.32-.1.86.35.86H7.8c.13 0 .26-.05.35-.15L10 20h4l1.85 1.85c.09.09.22.15.35.15h1.09c.45 0 .67-.54.35-.85l-1.19-1.19C17.89 19.73 19 18.5 19 17V8.5c0-2.77-2.87-3.41-6-3.5zm-1 13.5c-.83 0-1.5-.67-1.5-1.5s.67-1.5 1.5-1.5 1.5.67 1.5 1.5-.67 1.5-1.5 1.5zm5-4.5H7V9h10v5z"/>
        </g></svg>

<svg width="24" height="24" viewBox="0 0 24 24" fill="none" xmlns="http://www.w3.org/2000/svg">
<path fill-rule="evenodd" clip-rule="evenodd" d="M13 5L13.75 3.5H17V2H7V3.5H11.75L11 5C7.87 5.09 5 5.73 5 8.5V17C5 18.5 6.11 19.73 7.55 19.95L6.36 21.14C6.04 21.46 6.26 22 6.71 22H7.8C7.93 22 8.06 21.95 8.15 21.85L10 20H14L15.85 21.85C15.94 21.94 16.07 22 16.2 22H17.29C17.74 22 17.96 21.46 17.64 21.15L16.45 19.96C17.89 19.73 19 18.5 19 17V8.5C19 5.73 16.13 5.09 13 5ZM12 18.5C11.17 18.5 10.5 17.83 10.5 17C10.5 16.17 11.17 15.5 12 15.5C12.83 15.5 13.5 16.17 13.5 17C13.5 17.83 12.83 18.5 12 18.5ZM7 14H17V9H7V14Z" fill="black"/>
</svg>
